src/images/skill/bushcraft/redwood.svg

<svg xmlns="http://www.w3.org/2000/svg" viewBox="0 0 512 512" style="height: 512px; width: 512px;"><g class="" transform="translate(0,0)" style=""><path d="M174.1 25.24c-1.5.02-3 .07-4.4.14-23.7 1.24-46.2 10.36-67.9 22.99-4.17 2.43-11.67 13.73-16.3 24.44-4.63 10.72-7.35 20.36-7.35 20.36l-1.35 4.77-4.74 1.42C55.37 104.3 42.02 110 33.67 116.5c-8.35 6.5-11.96 12.8-11.83 22.6.03 1.9 1.68 4.9 5.67 7.7 3.99 2.9 9.77 5.1 13.77 5.6 21.86 2.8 43.22-5.2 65.02-17.9 21.9-12.6 43.6-29.6 65.9-42.82l4.7-2.75 4.6 2.81C218 113.9 251.3 108.9 290.3 108c8.7-.2 23.6-3.1 35.9-6 12.2-2.97 22-5.84 22-5.84l4.4-1.32 3.7 2.91c18.6 14.85 34 30.55 48.1 40.65 14.1 10.1 25.2 14.4 39.3 9.9 6-1.9 11.7-8 15.6-16.6 3.9-8.5 5.7-19.1 4.9-27-1.8-18.64-18.4-40.46-35.8-46.63-3.6-1.25-15.4.37-25.3 3.85-9.8 3.48-17.8 7.66-17.8 7.66l-4.6 2.38-4.4-2.73s-9.1-5.71-20.9-11.84c-11.7-6.13-26.5-12.48-34.8-13.77-9.2-1.45-26.7.29-41 2.76-14.2 2.47-25.7 5.37-25.7 5.37l-4 1.03-3.4-2.4c-24.6-17.39-46.9-24.43-68-25.09l.1-.01c-1.5-.05-3-.06-4.5-.04zm2.4 85.06c-5.7 3.5-11.4 7.3-17.2 11.2 9.1 11.5 16.9 23.7 33.1 31.9-22.5 1-42.4-4.3-59.8-14-5.4 3.6-10.9 7-16.5 10.3 5.6 2.7 11.9 4.8 19.8 5.7-3.7 5.2-12.4 9.3-22.5 13-.4 6.7-7.9 19.4 20.9 11 8.8-2.6 15.2-10.1 17.9-17.1 32.8 10.3 48.9 8.1 44.6 34.7-16.3 99.9-23.5 216.9-15.6 286.4 2.4 20.8 130.2 19.2 131.2 0 5.6-116.5-14.5-212.7-26-312.6l24.5-9.2c10.1 11.3 3.9 9.9-6.8 21.1l10.5 12.4c10.6-16.4 23.6-22.7 13.5-39l30.7-10.7c15.9 19.2 19.3 17 40 11-1.6-1-3.3-2.1-4.9-3.3-12.7-9.1-24.9-20.8-38.1-32.2-15.1 9.3-47.4 24.5-70 26.8 3.4-7.4 7.5-14.7 10.6-22-2 .1-3.9.3-5.7.3-6 .1-12 .4-18 .6-1.8 6.5-4.5 12.9-11.4 18.8-15.9 3.3-39.3 5.5-49-7.5 5-3.4 11.9-7.3 17.5-11.9-8.2-.8-16.5-2.3-24.9-4.6-3.3 2.6-6.8 4.5-10.1 4.4-6.8-.1-14.1-9.3-18.3-15.5z" fill="#fff" fill-opacity="1"></path></g></svg>

<svg xmlns="http://www.w3.org/2000/svg" viewBox="0 0 512 512" style="height: 512px; width: 512px;"><g class="" transform="translate(0,0)" style=""><g><path d="M174.1 25.24C172.6 25.26 171.1 25.31 169.7 25.38C146 26.62 123.5 35.74 101.8 48.37C97.63 50.8 90.13 62.1 85.5 72.81C80.87 83.53 78.15 93.17 78.15 93.17L76.8 97.94L72.06 99.36C55.37 104.3 42.02 110 33.67 116.5C25.32 123 21.71 129.3 21.84 139.1C21.87 141 23.52 144 27.51 146.8C31.5 149.7 37.28 151.9 41.28 152.4C63.14 155.2 84.5 147.2 106.3 134.5C128.2 121.9 149.9 104.9 172.2 91.68L176.9 88.93L181.5 91.74C218 113.9 251.3 108.9 290.3 108C299 107.8 313.9 104.9 326.2 102C338.4 99.03 348.2 96.16 348.2 96.16L352.6 94.84L356.3 97.75C374.9 112.6 390.3 128.3 404.4 138.4C418.5 148.5 429.6 152.8 443.7 148.3C449.7 146.4 455.4 140.3 459.3 131.7C463.2 123.2 465 112.6 464.2 104.7C462.4 86.06 445.8 64.24 428.4 58.07C424.8 56.82 413 58.44 403.1 61.92C393.3 65.4 385.3 69.58 385.3 69.58L380.7 71.96L376.3 69.23C376.3 69.23 367.2 63.52 355.4 57.39C343.7 51.26 328.9 44.91 320.6 43.62C311.4 42.17 293.9 43.91 279.6 46.38C265.4 48.85 253.9 51.75 253.9 51.75L249.9 52.78L246.5 50.38C221.9 32.99 199.6 25.95 178.5 25.29L178.6 25.28C177.1 25.23 175.6 25.22 174.1 25.24Z" class="selected" fill="#3f5c2e" fill-opacity="1"></path><path d="M176.5 110.3C170.8 113.8 165.1 117.6 159.3 121.5C168.4 133 176.2 145.2 192.4 153.4C169.9 154.4 150 149.1 132.6 139.4C127.2 143 121.7 146.4 116.1 149.7C121.7 152.4 128 154.5 135.9 155.4C132.2 160.6 123.5 164.7 113.4 168.4C113 175.1 105.5 187.8 134.3 179.4C143.1 176.8 149.5 169.3 152.2 162.3C185 172.6 201.1 170.4 196.8 197C180.5 296.9 173.3 413.9 181.2 483.4C183.6 504.2 311.4 502.6 312.4 483.4C318 366.9 297.9 270.7 286.4 170.8L310.9 161.6C321 172.9 314.8 171.5 304.1 182.7L314.6 195.1C325.2 178.7 338.2 172.4 328.1 156.1L358.8 145.4C374.7 164.6 378.1 162.4 398.8 156.4C397.2 155.4 395.5 154.3 393.9 153.1C381.2 144 369 132.3 355.8 120.9C340.7 130.2 308.4 145.4 285.8 147.7C289.2 140.3 293.3 133 296.4 125.7C294.4 125.8 292.5 126 290.7 126C284.7 126.1 278.7 126.4 272.7 126.6C270.9 133.1 268.2 139.5 261.3 145.4C245.4 148.7 222 150.9 212.3 137.9C217.3 134.5 224.2 130.6 229.8 126C221.6 125.2 213.3 123.7 204.9 121.4C201.6 124 198.1 125.9 194.8 125.8C188 125.7 180.7 116.5 176.5 110.3Z" class="" fill="#ab4e52" fill-opacity="1"></path></g></g></svg>
